X:1
T:THE CAKE-WALK PATROL.
T:THE CAKE-WALK PATROL.
T:TWO-STEP.
T:W.  M.  KRELL.
T:Copyright 1895 by The S. Brainard's Sons Co.
T:Copyright 1895 by The S. Brainard's Sons Co.
T:Copyright 1895 by The S. Brainard's Sons Co.
T:Copyright 1895 by The S. Brainard's Sons Co.
C:W.  M.  KRELL.
Z:Copyright 1895 by The S. Brainard's Sons Co.
%%score { ( 1 3 ) | 2 }
L:1/8
Q:1/4=90
M:2/4
K:F
V:1 treble nm="Piano" snm="Pno."
V:3 treble 
V:2 bass 
V:1
"^Fall in Line."!ppp! (3C/D/E/ | Ff/d/ cA | _D2 C2 | [B,EG]>[B,EG] [A,DF][A,DF] | %4
 [B,EG]/[B,EG][B,EG]/ [A,DF]3/2 (3A,/4=B,/4^C/4 | Dd/A/ FD | B,2 A,2 | C=B,/C/ ^C/D/^D/E/ | %8
 F[CFA] z [CFA] | z [CFA] z [CFA] |:"^The Start."!pp! FG/A/ dc | FG/A/ dc | z{/A} F{/A} E{/A} D | %13
 z/ [Ac]/ z z2 | FG/A/ dc | FG/A/ dc | z{/A} F{/A} E{/A} D | z/ [Bc]/ z z2 | GA/B/ ed | FF/G/ A<d | %20
{/d} BB B/A/G/d/ |{/d} AA A/G/F/G/ | AA/c/ =Bc/B/ | A z !>![EG_Bc]2 ::!p!!<(! f>g!<)!!>(! fd!>)! | %25
 c=B/d/ cA |{FG} FF F/E/F/G/ | [FA]3 z |!<(! d>e!<)!!>(! dB!>)! | A^G/B/ AF |{DE} DF F/E/F/G/ | %31
 [DFA]3 z | Gc E/F/G/E/ | Fc F/G/!<(!A/F/ |{/A} Gc =B/c/!<)!d/B/ |1 c{/d} c{/d} c{/d} c :|2 %36
 c z !>![EGBc]2 ||!f! FG/A/ dc | FG/A/ dc | z{/A} F{/A} E{/A} D | z/ [Ac]/ z z2 | FG/A/ dc | %42
 FG/A/ dc | z{/A} F{/A} E{/A} D | z/ [Bc]/ z z2 | GA/B/ ed | FF/G/ A<d |{/d} BB B/A/G/d/ | %48
{/d} AFD_D | CF E/!<(!F/G/E/ | F!<)! z [FAf]2 |: %51
[K:Bb]"^Passing the Judges.""^2nd time 8va."!ff! [Fdf] [Gdg]2 [Fdf] | [Fd]2 [DB]2 | %53
{/c} BB c/B/G/A/ | B3 z | [Fdf] [Gdg]2 [Fdf] | [Fd]2 [DB]2 | dd d/c/B/c/ | c4 | %59
 [Fdf] [Gdg]2 [Fdf] | [Fd]2 [DB]2 |{/c} BB c/B/G/A/ | [DB]3 z | [Geg] [Beb]2 [Aea] | %64
 [Gdg][Fdf] d/c/B/d/ | [EFAc]3 d/c/ |1 [DB] z{/g} ff :|2 [DB] z [DB] z/ (3d/4=e/4^f/4 || %68
!fff!"^Keep a movin'." !>!g z !>!d z | B/c/d/B/ G z/ (3d/4=e/4^f/4 | gg ^f/g/a/f/ | gg ^f/g/a/f/ | %72
 g !>!e2 d | G z G, z/ (3c/4d/4=e/4 | !>!f z !>!c z | A/B/c/A/ F z |{/g} ff g/f/=e/g/ | %77
 ff g/f/=e/g/ | ff g/f/=e/g/ |!fff! f z [A_ef]2 ||!f!"^Judges Undecided." [Fdf] [Gdg]2 [Fdf] | %81
 [Fd]2 [DB]2 |{/c} BB c/B/G/A/ | B3 z | [Fdf] [Gdg]2 [Fdf] | [Fd]2 [DB]2 | dd d/c/B/c/ | c4 | %88
 [Fdf] [Gdg]2 [Fdf] | [Fd]2 [DB]2 |{/c} BB c/B/G/A/ | B3 z | [Geg] [Beb]2 [Aea] | %93
 [Gdg][Fdf] d/c/B/d/ | [EFAc]3 d/c/ | [DB] z [DB] z/ (3C/4D/4E/4 || %96
[K:F]"^We'll get it Sure, Honey."!p! Ff/d/ cA | _D2 C2 | [B,EG]>[B,EG] [A,DF][A,DF] | %99
 [B,EG]/[B,EG][B,EG]/ [A,DF]3/2 (3A,/4=B,/4^C/4 | Dd/A/ FD | B,2 A,2 | C=B,/C/ ^C/D/^D/E/ | %103
 F[CFA] z [CFA] | z [CFA] z [CFA] |:!pp!"^The Finish." FG/A/ dc | FG/A/ dc | z{/A} F{/A} E{/A} D | %108
 z/ [Ac]/ z z2 | FG/A/ dc | FG/A/ dc | z{/A} F{/A} E{/A} D | z/ [Bc]/ z z2 | GA/B/ ed | FF/G/ A<d | %115
{/d} BB B/A/G/d/ |1{/d} AA A/G/F/G/ | AA/c/ =Bc/B/ | A z !>![EG_Bc]2 :|2{/d} AFD_D | CF E/F/G/E/ | %121
 F z F z ||!ppp!"^“Taking the Cake.”" f d2 B | AF D3/2 (3A/4=B/4=c/4 | dd ^c/d/e/c/ | d z d z | %126
 d c2 A | G_D C3/2 (3C/4=D/4E/4 | FF E/F/G/E/ | F z [FAf] z |] %130
V:2
 z | F,F/D/ CA, | _D,2 C,2 | ^C,>C, D,D, | ^C,/C,C,/ D,2 | D,D/A,/ F,D, | B,,2 A,,2 | [C,E,B,]4 | %8
 [F,A,] z C, z | F, z C, z |: F,[A,C] C,[A,C] | F,[A,C] C,[A,C] | F,[A,C] C,[A,C] | F,C,D,E, | %14
 F,[A,C] C,[A,C] | F,[A,C] C,[A,C] | F,[A,C] C,[A,C] | E,[G,B,] C,[G,B,] | E,[G,B,C] C,[B,C] | %19
 D,[F,A,] D,[F,A,] | G,,[G,B,] G,,[G,B,] | D,[F,A,] D,[F,A,] | E,[A,C] E,[^G,D] | %23
 [A,C] z [C,E,B,]2 :: F,[A,C] C,[A,C] | F,[A,C] C,[A,C] | F,[A,C] C,[A,C] | F,B,A,F, | %28
 D,[F,A,] D,[F,A,] | D,[F,A,] D,[F,A,] | D,[F,A,] D,[F,A,] | D,B,F,D, | %32
"^cresc." E,[G,B,] C,[E,B,] | F,[A,C] F,[A,C] | G,[CE] G,[=B,F] |1 [CE]2 z2 :|2 [CE] z [C,E,B,]2 || %37
 [F,,F,][A,C] [C,,C,][A,C] | [F,,F,][A,C] [C,,C,][A,C] | [F,,F,][A,C] [C,,C,][A,C] | %40
 [F,,F,][C,,C,][D,,D,][E,,E,] | [F,,F,][F,A,] [C,,C,][F,A,] | [F,,F,][F,A,] [C,,C,][F,A,] | %43
 [F,,F,][F,A,] [C,,C,][F,A,] | [G,,G,][E,B,] [C,,C,][D,,D,] | [E,,E,][G,B,C] [C,,C,][E,B,] | %46
 [D,,D,][F,A,] [D,,D,][F,A,] | [G,,G,][G,B,D] [G,,G,][G,B,D] | A,F,D,_D, | %49
 [C,,C,][F,A,] [C,,C,][C,E,B,] | [F,,F,] z !>![G,B,_E]2 |:[K:Bb] [B,,B,][F,B,D] [F,,F,][F,B,D] | %52
 [B,,B,][F,B,D] [F,,F,][F,B,] | B,,[F,B,] [E,,E,][G,B,] | [B,,B,][F,B,D] [F,,F,][F,B,D] | %55
 [B,,B,][F,B,D] [F,,F,][F,B,D] | [B,,B,][F,B,D] [F,,F,][F,B,] | [B,,,B,,][F,B,D] [C,,C,][G,B,C] | %58
 [F,,F,] _EDC | [B,,B,][F,B,D] [F,,F,][F,B,D] | [B,,B,][F,B,D] [F,,F,][F,B,] | %61
 B,,[F,B,] [E,,E,][G,B,] | [B,,B,][F,B,D] [F,,F,][F,B,D] | [E,,E,][G,B,E] [G,,G,][G,B,E] | %64
 [B,,B,][F,B,D] [F,,F,][F,B,D] | [F,,F,][^F,,^F,][G,,G,][A,,A,] |1 [B,,B,] z z2 :|2 %67
 [B,,B,] z [B,,F,B,] z/ (3D/4=E/4^F/4 || !>!G z !>!D z | B,/C/D/B,/ G, z | %70
[K:treble] [DGB][DGB] [D^Fc]2 | [DGB][DGB] [D^Fc]2 |[K:bass] G !>!E2 D | %73
 G, z [G,,,G,,] z/ (3C/4D/4=E/4 | !>!F z !>!C z | A,/B,/C/A,/ F, z | !>![F,F]2 !>![G,=EG]2 | %77
[K:treble]"^cres            -          cen               -            -          do." !>![A,FA]2 !>![B,GB]2 | %78
 !>![CAc]2 !>![DBd]2 | !>![_EAc_e] z[K:bass] !>![F,A,E]2 || [B,,B,][F,B,D] [F,,F,][F,B,D] | %81
 [B,,B,][F,B,D] [F,,F,][F,B,] | B,,[F,B,] [E,,E,][G,B,] | [B,,B,][F,B,D] [F,,F,][F,B,D] | %84
 [B,,B,][F,B,D] [F,,F,][F,B,D] | [B,,B,][F,B,D] [F,,F,][F,B,] | [B,,,B,,][F,B,D] [C,,C,][G,B,C] | %87
 [F,,F,] _EDC | [B,,B,][F,B,D] [F,,F,][F,B,D] | [B,,B,][F,B,D] [F,,F,][F,B,] | %90
 B,,[F,B,] [E,,E,][G,B,] | [B,,B,][F,B,D] [F,,F,][F,B,D] | [E,,E,][G,B,E] [G,,G,][G,B,E] | %93
 [B,,B,][F,B,D] [F,,F,][F,B,D] | [F,,F,][^F,,^F,][G,,G,][A,,A,] | [B,,B,] z [B,,F,B,] z || %96
[K:F] F,F/D/ CA, | _D,2 C,2 | ^C,>C, D,D, | ^C,/C,C,/ D,2 | D,D/A,/ F,D, | B,,2 A,,2 | [C,E,B,]4 | %103
 [F,A,] z C, z | F, z C, z |: F,[A,C] C,[A,C] | F,[A,C] C,[A,C] | F,[A,C] C,[A,C] | F,C,D,E, | %109
 F,[A,C] C,[A,C] | F,[A,C] C,[A,C] | F,[A,C] C,[A,C] | E,[G,B,] C,[G,B,] | E,[G,B,C] C,[B,C] | %114
 D,[F,A,] D,[F,A,] | G,,[G,B,] G,,[G,B,] |1 D,[F,A,] D,[F,A,] | E,[A,C] E,[^G,D] | %118
 [A,C] z [C,E,B,]2 :|2 A,F,D,_D, | [C,F,A,]2 [C,E,B,]2 | [F,A,] z [F,A,] z || F D2 B, | A,F, D,2 | %124
 [F,DF][F,DF] [A,^CG]2 | [DF] z [DF] z | D C2 A, | G,_D,"^dim." C,2 | [C,F,A,]2 [C,E,B,]2 | %129
 F, z [F,,F,] z |] %130
V:3
 x | x4 | x4 | x4 | x4 | x4 | x4 | x4 | x4 | x4 |: x4 | x4 | x4 |{/A} !>!C4 | x4 | x4 | x4 | %17
{/B} !>!C4 | x4 | x4 | x4 | x4 | x4 | x4 :: A4 | x4 | x4 | x4 | [FA]4 | x4 | x4 | x4 | x4 | x4 | %34
 x4 |1 x4 :|2 x4 || x4 | x4 | x4 |{/A} C4 | x4 | x4 | x4 |{/B} C4 | x4 | x4 | x4 | x4 | x4 | x4 |: %51
[K:Bb] x4 | x4 | DD E2 | D3 x | x4 | x4 | FF =E2 | F !>![A_ef]3 | x4 | x4 | DD E2 | x4 | x4 | %64
 x2 F2 | x4 |1 x4 :|2 x4 || x4 | x4 | x4 | x4 | x4 | x4 | x4 | x4 | x4 | x4 | x4 | x4 || x4 | x4 | %82
 DD E2 | D3 x | x4 | x4 | FF =E2 | F !>![A_ef]3 | x4 | x4 | DD E2 | D3 x | x4 | x2 F2 | x4 | x4 || %96
[K:F] x4 | x4 | x4 | x4 | x4 | x4 | x4 | x4 | x4 |: x4 | x4 | x4 |{/A} C4 | x4 | x4 | x4 |{/B} C4 | %113
 x4 | x4 | x4 |1 x4 | x4 | x4 :|2 x4 | x4 | x4 || x4 | x4 | x4 | x4 | x4 | x4 | x4 | x4 |] %130

